X:61
T:Hanter-dro 2
G:Kazimodal
R:Hanter-dro
C:Traditionnel
Q:C2=116
P:B5
M:3/4
S:Tonioù Breizh-Izel 1925 (Pleskob)
K:Dm
P:B
(gf/2)e/2 df (e/2d/2)c | {de}dc/2B/2 Ad (d/2e/2)f |\
(gf/2)e/2 df (e/2d/2)c | (dc/2)B/2 Ad d2 ||
|: (de/2)f/2 ge (f/2e/2)d | {de}de/2f/2 gf e2 :|
(gf/2)e/2 df (e/2d/2)c | dc/2B/2 Ad (d/2e/2)f |\
(gf/2)e/2 df (e/2d/2)c | {de}(dc/2)B/2 (Ad) d2 |]
